Flat Remix Dark/apps/scalable/mintWelcome.svg

<svg xmlns="http://www.w3.org/2000/svg" width="384pt" height="384pt" version="1.1" viewBox="0 0 384 384">
 <g>
  <path style="fill:rgb(100%,100%,100%);stroke-width:14.831025;stroke:rgb(0%,40%,25.882353%)" d="M 201.3125 452 C 150.302083 438.609375 113.291667 405.854167 97.416667 360.0625 L 93.848958 344.9375 L 90.953125 252.75 C 87.802083 152.526042 89.588542 152.151042 79.65625 144.333333 C 75.640625 141.171875 72.583333 140.557292 60.765625 140.546875 C 53.010417 140.536458 42.557292 140.036458 37.536458 139.432292 L 28.416667 138.338542 L 28.416667 56.677083 L 193.067708 57.46875 C 372.682292 58.328125 366.921875 58.010417 393.744792 68.53125 C 427.578125 81.802083 457.197917 109.479167 471.598958 141.276042 C 482.630208 165.630208 482.40625 162.5625 483.239583 298.208333 C 483.932292 410.473958 483.739583 422.453125 481.151042 427.463542 C 476.302083 436.84375 465.864583 447.046875 456.770833 451.296875 L 448.083333 455.354167 L 330.786458 455.276042 C 222.661458 455.203125 212.536458 454.947917 201.3125 452 Z M 370.984375 398.088542 C 408.3125 394.15625 437.130208 365.328125 442.223958 326.822917 C 443.473958 317.359375 443.869792 291.515625 443.34375 253.765625 C 442.359375 183.604167 442.046875 182.192708 423.052083 163 C 408.942708 148.734375 397.973958 144.036458 378.786458 144.036458 C 363.635417 144.036458 352.8125 147.026042 341.401042 154.354167 L 332.963542 159.776042 L 318.666667 152.34375 C 304.458333 144.953125 304.265625 144.90625 285.864583 144.90625 C 269.921875 144.90625 266.203125 145.479167 259.015625 149.020833 C 246.661458 155.109375 234.21875 168.166667 227.75 181.828125 L 222.177083 193.609375 L 221.671875 247.098958 L 221.166667 300.583333 L 261.276042 300.583333 L 261.28125 251.447917 C 261.286458 205.484375 261.510417 201.942708 264.739583 196.640625 C 272.572917 183.786458 290.703125 179.78125 301.171875 188.598958 C 311.494792 197.291667 311.671875 198.354167 311.671875 251.796875 L 311.671875 300.583333 L 351.286458 300.583333 L 351.895833 250.265625 C 352.479167 202.338542 352.682292 199.71875 356.166667 195.041667 C 367.395833 179.963542 388.166667 179.890625 398.854167 194.890625 C 402.885417 200.546875 402.90625 200.833333 403.4375 262.765625 L 403.973958 324.963542 L 399.182292 333.776042 C 393.802083 343.671875 385.479167 350.979167 373.0625 356.713542 C 364.744792 360.557292 364.005208 360.588542 286.963542 360.265625 C 200.666667 359.901042 203.427083 360.25 190.802083 347.984375 C 187.270833 344.552083 182.53125 337.765625 180.270833 332.90625 L 176.161458 324.067708 L 176.140625 216.911458 L 176.125 109.760417 L 162.828125 108.635417 C 155.515625 108.015625 146.916667 107.510417 143.713542 107.510417 L 137.895833 107.510417 L 138.015625 200.135417 C 138.078125 251.078125 138.713542 304.104167 139.416667 317.979167 C 140.635417 341.984375 140.973958 343.713542 146.421875 353.942708 C 153.010417 366.3125 168.088542 382.270833 179.53125 388.984375 C 196.28125 398.817708 203.135417 399.520833 282.994792 399.598958 C 323.140625 399.635417 362.734375 398.953125 370.984375 398.088542 Z M 370.984375 398.088542" transform="matrix(0.75,0,0,0.75,0,0)"/>
  <path style="fill:rgb(5.882353%,63.137255%,37.254902%);stroke-width:1.235919;stroke:rgb(0%,40%,25.882353%)" d="M 232.583333 398.770833 C 204.052083 398.125 196.166667 396.890625 184.890625 391.322917 C 176.713542 387.28125 171.6875 383.526042 163.59375 375.411458 C 153.265625 365.046875 144.84375 352.401042 142.380208 343.572917 C 139.53125 333.34375 138.989583 313.260417 138.588542 203.817708 L 138.239583 107.598958 L 140.005208 107.598958 C 142.786458 107.598958 168.947917 109.34375 172.442708 109.760417 L 175.59375 110.135417 L 175.59375 323.609375 L 178.34375 329.536458 C 179.854167 332.796875 182.53125 337.640625 184.296875 340.302083 C 188.088542 346.005208 195.911458 353.713542 200.046875 355.807292 C 208.057292 359.869792 223.28125 360.53125 303.067708 360.255208 C 371.203125 360.026042 366.552083 360.3125 375.505208 355.8125 C 388.078125 349.494792 395.135417 342.364583 402.354167 328.671875 L 404.354167 324.880208 L 403.640625 266.223958 C 403.229167 232.541667 402.65625 205.802083 402.296875 203.421875 C 401.489583 198.072917 399.994792 195.208333 395.822917 191.046875 C 385.729167 180.963542 370.494792 180.90625 359.692708 190.916667 C 355.494792 194.807292 354.109375 197.234375 353.192708 202.28125 C 352.432292 206.463542 351.390625 248.078125 351.369792 274.885417 C 351.364583 284.822917 351.1875 294.619792 350.973958 296.651042 L 350.588542 300.338542 L 311.84375 300.338542 L 311.583333 253.65625 C 311.307292 205.130208 311.192708 202.833333 308.671875 196.973958 C 307.151042 193.432292 301.223958 187.682292 297.015625 185.666667 C 293.083333 183.78125 285.166667 183.307292 280.458333 184.677083 C 273.479167 186.708333 266.119792 192.515625 263.755208 197.869792 C 261.5625 202.833333 261.317708 207.802083 260.958333 254.557292 L 260.604167 300.338542 L 221.151042 300.338542 L 221.453125 296.588542 C 221.619792 294.520833 221.911458 270.541667 222.09375 243.296875 L 222.4375 193.760417 L 226.833333 184.755208 C 233.40625 171.291667 241.401042 161.302083 251.177083 154.328125 C 255.458333 151.270833 262.130208 147.765625 265.875 146.604167 C 269.098958 145.604167 297.614583 145.088542 302.473958 145.942708 C 305.015625 146.390625 309.953125 148.515625 319.348958 153.208333 C 326.651042 156.854167 332.833333 159.838542 333.088542 159.838542 C 333.34375 159.838542 336.09375 158.1875 339.203125 156.171875 C 350.609375 148.776042 358.6875 145.921875 371.651042 144.692708 C 384.5 143.473958 396.130208 145.286458 405.348958 149.932292 C 413 153.791667 423.026042 162.401042 430.520833 171.546875 C 441.744792 185.234375 442.71875 193.119792 442.796875 270.916667 C 442.828125 306.796875 442.640625 320.791667 442.078125 325.213542 C 437.130208 363.765625 410.015625 392.317708 373.552083 397.354167 C 361.838542 398.973958 278.291667 399.817708 232.583333 398.776042 Z M 232.583333 398.770833" transform="matrix(0.75,0,0,0.75,0,0)"/>
 </g>
</svg>

<svg xmlns="http://www.w3.org/2000/svg" width="512" height="512" version="1.1" viewBox="0 0 512 512">
 <path style="fill:#ffffff;stroke:#006642;stroke-width:14.83102512" d="M 201.31096,452.00074 C 150.30326,438.60791 113.28911,405.85268 97.416113,360.06037 L 93.850186,344.9382 90.953131,252.75065 c -3.14957,-100.22284 -1.363033,-100.5979 -11.297529,-108.41974 -4.014549,-3.16078 -7.070721,-3.77326 -18.891493,-3.78595 -7.756189,-0.008 -18.2076,-0.5087 -23.225377,-1.11195 l -9.12322,-1.09688 0,-40.828454 0,-40.828498 164.652548,0.788681 c 179.61484,0.860323 173.85291,0.542527 200.67919,11.065597 33.82875,13.26981 63.44923,40.945784 77.85276,72.741854 11.03222,24.35394 10.80485,21.28886 11.64079,156.93503 0.69182,112.26175 0.49807,124.24362 -2.09015,129.25321 -4.84649,9.38103 -15.28436,19.58568 -24.37788,23.83325 l -8.6888,4.05851 -117.29861,-0.0799 c -108.12442,-0.0709 -118.25096,-0.32876 -129.4744,-3.27568 l 0,0 z m 169.67339,-53.9142 c 37.32916,-3.93261 66.14374,-32.7586 71.23725,-71.26559 1.2512,-9.45927 1.64756,-35.30666 1.12019,-73.05429 -0.98024,-70.16245 -1.29524,-71.57169 -20.28859,-90.76785 -14.11255,-14.26325 -25.07861,-18.9599 -44.2685,-18.9599 -15.15158,0 -25.97388,2.9863 -37.38624,10.31646 l -8.43716,5.41917 -14.29376,-7.43298 c -14.2116,-7.39026 -14.40017,-7.43298 -32.80206,-7.43298 -15.94506,0 -19.66336,0.56922 -26.84875,4.1105 -12.35752,6.09032 -24.79928,19.1462 -31.26428,32.80759 l -5.57694,11.78481 -0.50559,53.48616 -0.50559,53.48616 20.05534,0 20.05534,0 0.007,-49.13766 c 0.005,-45.9637 0.22951,-49.50395 3.45962,-54.80666 7.83078,-12.85557 25.96223,-16.85649 36.43138,-8.03903 10.32073,8.69284 10.49703,9.75408 10.49703,63.19413 l 0,48.78922 19.80823,0 19.80825,0 0.61044,-50.31578 c 0.58141,-47.92844 0.78395,-50.54887 4.26756,-55.22563 11.23042,-15.07673 32.00322,-15.15105 42.69086,-0.15284 4.02973,5.65511 4.04926,5.9437 4.58178,67.87731 l 0.53476,62.19807 -4.79046,8.80992 c -5.38055,9.89513 -13.70422,17.20634 -26.11728,22.94067 -8.32037,3.84375 -9.06019,3.87419 -86.10321,3.54943 -86.293,-0.36294 -83.53622,-0.0165 -96.15828,-12.28161 -3.5313,-3.43276 -8.27077,-10.21862 -10.53217,-15.07969 l -4.1116,-8.8383 -0.0169,-107.15198 -0.0169,-107.15201 -13.29538,-1.12489 c -7.31246,-0.61875 -15.91435,-1.12494 -19.11535,-1.12494 l -5.81995,0 0.11988,92.62243 c 0.0664,50.94231 0.69706,103.97192 1.40236,117.84354 1.22082,24.0092 1.55737,25.73731 7.00445,35.96317 6.58976,12.37106 21.66535,28.32817 33.10994,35.04613 16.75006,9.83202 23.60273,10.53477 103.46611,10.61069 40.14221,0.0371 79.7365,-0.6421 87.98734,-1.51111 l 0,0 z"/>
 <path style="fill:#0fa15f;stroke:#006642;stroke-width:1.23591876" d="m 232.58276,398.77318 c -28.53067,-0.65006 -36.4158,-1.88231 -47.69036,-7.45091 -8.17942,-4.03984 -13.20745,-7.79658 -21.29646,-15.91208 -10.32882,-10.36273 -18.75414,-23.0079 -21.21382,-31.83891 -2.84835,-10.22653 -3.39355,-30.31326 -3.79319,-139.75284 l -0.35137,-96.22076 1.76571,0 c 2.78252,0 28.94667,1.74441 32.44164,2.16298 l 3.14936,0.37736 0,106.7344 0,106.7344 2.74691,5.92936 c 1.5108,3.26114 4.19189,8.10503 5.95797,10.76428 3.78954,5.7059 11.61441,13.41136 15.74885,15.50839 8.01071,4.06312 23.2307,4.72026 103.02052,4.44803 68.13551,-0.23194 63.48287,0.0531 72.43502,-4.44449 12.57583,-6.31806 19.63205,-13.44984 26.85319,-27.14069 l 1.99986,-3.79155 -0.71546,-58.6544 c -0.41073,-33.68213 -0.98235,-60.42209 -1.34233,-62.80639 -0.8072,-5.34695 -2.30548,-8.21049 -6.47391,-12.37323 -10.09806,-10.08423 -25.33258,-10.13899 -36.13349,-0.12977 -4.19738,3.88968 -5.58446,6.31558 -6.49969,11.36748 -0.75687,4.1779 -1.79992,45.79211 -1.81964,72.59919 -0.007,9.94144 -0.18671,19.73614 -0.39871,21.76605 l -0.38544,3.6907 -19.37115,0 -19.37115,0 -0.26334,-46.68436 c -0.27367,-48.52526 -0.39154,-50.8199 -2.91174,-56.68368 -1.52078,-3.53852 -7.44682,-9.28735 -11.653,-11.30466 -3.93591,-1.88762 -11.85133,-2.36201 -16.55849,-0.99228 -6.98181,2.03156 -14.33695,7.84199 -16.70248,13.19467 -2.19281,4.96188 -2.43807,9.93044 -2.79811,56.68661 l -0.35253,45.7837 -19.72715,0 -19.72716,0 0.30218,-3.75278 c 0.16615,-2.06403 0.45516,-26.04415 0.64229,-53.28919 l 0.34013,-49.53645 4.39792,-9.00664 c 6.5746,-13.4643 14.56439,-23.45081 24.34493,-30.42893 4.27906,-3.05301 10.95159,-6.55869 14.69703,-7.72174 3.22304,-1.00084 31.73728,-1.51548 36.59721,-0.66055 2.54365,0.44744 7.47722,2.57096 16.87365,7.26263 7.30343,3.64666 13.48754,6.63029 13.74246,6.63029 0.25492,0 3.00551,-1.6483 6.11245,-3.66285 11.40541,-7.39545 19.4831,-10.25351 32.44928,-11.48136 12.85047,-1.21688 24.48061,0.59197 33.69673,5.241 7.6512,3.85957 17.67636,12.46613 25.17402,21.61181 11.22445,13.69167 12.19827,21.57708 12.27238,99.3731 0.033,35.8774 -0.15119,49.87212 -0.7184,54.29712 -4.94318,38.55 -32.06105,67.10001 -68.52153,72.14013 -11.71622,1.61963 -95.26435,2.46014 -140.97151,1.41813 l 0,0 z"/>
</svg>
